X: 35799
T: Salmon Tails Up The Water
R: polka
M: 2/4
K: Gmajor
|:GE DE|G2 G>A|Bd AB/A/|GE D>E|
GE DE|Gz G>A|Bd AB/A/|G2- G2:|
|:Bd d2|ce e2|dB AB/A/|
[1 GE D2|Bd d2|ce e>f|gf ed|ef g2:|
[2 GE D>E|GE DE|G2 G>A|Bd AB/A/|G2- G2||

